Numix-GalliumOS/22/mimetypes/application-x-ms-dos-executable.svg

<?xml version="1.0" encoding="UTF-8" standalone="no"?>
<svg
   xmlns:dc="http://purl.org/dc/elements/1.1/"
   xmlns:cc="http://creativecommons.org/ns#"
   xmlns:rdf="http://www.w3.org/1999/02/22-rdf-syntax-ns#"
   xmlns:svg="http://www.w3.org/2000/svg"
   xmlns="http://www.w3.org/2000/svg"
   xmlns:sodipodi="http://sodipodi.sourceforge.net/DTD/sodipodi-0.dtd"
   xmlns:inkscape="http://www.inkscape.org/namespaces/inkscape"
   width="22"
   height="22"
   viewBox="0 0 22 22"
   id="svg2"
   version="1.1"
   inkscape:version="0.48.5 r10040"
   sodipodi:docname="application-x-ms-dos-executable.svg">
  <metadata
     id="metadata22">
    <rdf:RDF>
      <cc:Work
         rdf:about="">
        <dc:format>image/svg+xml</dc:format>
        <dc:type
           rdf:resource="http://purl.org/dc/dcmitype/StillImage" />
      </cc:Work>
    </rdf:RDF>
  </metadata>
  <defs
     id="defs20" />
  <sodipodi:namedview
     pagecolor="#ffffff"
     bordercolor="#666666"
     borderopacity="1"
     objecttolerance="10"
     gridtolerance="10"
     guidetolerance="10"
     inkscape:pageopacity="0"
     inkscape:pageshadow="2"
     inkscape:window-width="1280"
     inkscape:window-height="970"
     id="namedview18"
     showgrid="true"
     inkscape:zoom="7.375"
     inkscape:cx="18.046635"
     inkscape:cy="22.590201"
     inkscape:window-x="0"
     inkscape:window-y="0"
     inkscape:window-maximized="1"
     inkscape:current-layer="svg2">
    <inkscape:grid
       type="xygrid"
       id="grid2999"
       empspacing="5"
       visible="true"
       enabled="true"
       snapvisiblegridlinesonly="true" />
  </sodipodi:namedview>
  <path
     style="fill:#eeeeee"
     d="M 3.9128785,3 C 3.4583331,3 3,3.4583331 3,3.9128785 L 3,18.109848 C 3,18.541667 3.4583331,19 3.8901518,19 L 18.109848,19 C 18.541667,19 19,18.541667 19,18.109848 L 19,3.8901518 C 19,3.4583331 18.541667,3 18.109848,3 z"
     id="path4"
     inkscape:connector-curvature="0" />
  <path
     style="fill:#aaaaaa"
     d="M 4.109848,3 C 3.8143942,3 3.5492422,3.1439399 3.3484848,3.3484848 3.1439399,3.5492422 3,3.8143942 3,4.1098482 L 3,17.916666 c 0,0.28788 0.1363636,0.553031 0.3333333,0.750001 C 3.530303,18.863636 3.7954541,19 4.083334,19 l 13.833332,0 c 0.28788,0 0.553031,-0.136364 0.750001,-0.333333 C 18.863636,18.469697 19,18.204546 19,17.916666 L 19,4.0833338 C 19,3.7954541 18.863636,3.530303 18.666667,3.3333333 18.469697,3.1363636 18.204546,3 17.916666,3 z M 4,4 18,4 18,18 4,18 z"
     id="path8"
     inkscape:connector-curvature="0"
     sodipodi:nodetypes="scsssssssssssccccc" />
  <g
     style="fill:#888888"
     id="g8"
     transform="matrix(1.3333333,0,0,1.3333333,0.33333333,0.33333333)">
    <path
       d="M 4,8 5.777344,6.222656 7.554688,8 5.777344,9.777344 z"
       id="path10"
       inkscape:connector-curvature="0" />
    <path
       d="M 6.222656,5.777344 8,4 9.777344,5.777344 8,7.554688 z"
       id="path12"
       inkscape:connector-curvature="0" />
    <path
       d="M 8.445312,8 10.222656,6.222656 12,8 10.222656,9.777344 z"
       id="path14"
       inkscape:connector-curvature="0" />
    <path
       d="M 6.222656,10.222656 8,8.445312 9.777344,10.222656 8,12 z"
       id="path16"
       inkscape:connector-curvature="0" />
  </g>
</svg>

<svg xmlns="http://www.w3.org/2000/svg" viewBox="0 0 22 22">
 <path d="m 3.913 3 c -0.455 0 -0.913 0.458 -0.913 0.913 l 0 14.197 c 0 0.432 0.458 0.89 0.89 0.89 l 14.22 0 c 0.432 0 0.89 -0.458 0.89 -0.89 l 0 -14.22 c 0 -0.432 -0.458 -0.89 -0.89 -0.89 z" style="fill:#eee"/>
 <path d="m 4.11 3 c -0.295 0 -0.561 0.144 -0.761 0.348 -0.205 0.201 -0.348 0.466 -0.348 0.761 l 0 13.807 c 0 0.288 0.136 0.553 0.333 0.75 c 0.197 0.197 0.462 0.333 0.75 0.333 l 13.833 0 c 0.288 0 0.553 -0.136 0.75 -0.333 c 0.197 -0.197 0.333 -0.462 0.333 -0.75 l 0 -13.833 c 0 -0.288 -0.136 -0.553 -0.333 -0.75 -0.197 -0.197 -0.462 -0.333 -0.75 -0.333 z m -0.11 1 14 0 0 14 -14 0 z" style="fill:#aaa"/>
 <g transform="matrix(1.3333333,0,0,1.3333333,0.33333333,0.33333333)" style="fill:#888">
  <path d="m 4 8 1.777 -1.777 1.777 1.777 -1.777 1.777 z"/>
  <path d="m 6.223 5.777 1.777 -1.777 1.777 1.777 -1.777 1.777 z"/>
  <path d="m 8.445 8 1.777 -1.777 1.777 1.777 -1.777 1.777 z"/>
  <path d="m 6.223 10.223 1.777 -1.777 1.777 1.777 -1.777 1.777 z"/>
 </g>
</svg>
